FINK
CUT[DER JAEGERSMANN TRAT INS HUETTCHEN SEIN]
REG[Europa, Mitteleuropa, Deutschland]
KEY[F0621  16  E 6/8]
MEL[5_  5__3b_5_.43b_  2__2_3b__
    5_  +1__5_3b__1_  5___0_
    5_  5__3b_5_.43b_  2__2_3b__
    5_  +1__5_3b__1_  5___0_
    5_  2_.22_3b_.3b4_  5_4_3b_2__
    5_  2_.22_3b_.3b4_  5_4_3b_2__
    3b_  3b__5_5__+1_  +1__.^__
    4#_  5_+1_5_4_3b_2_  5__.+1_0_
    4#_  5_+1_5_4_3b_2_  1__.^_0_ //] >>
FCT[Staende -, Jaeger - Lied, Unglueck, Tod]
